DVA
CUT[Muede kehrt ein Wandersmann zurueck
    nach der Heimat seiner Liebe Glueck]
REG[Europa, Mitteleuropa, Deutschland, Hessen, Gross  Gerau, Klein Gerau]
KEY[D1001  16  G 2/4]
MEL[  3_.21_-7_  1_-7_1_2_  -5_.0
    -5_-7_  2__.1_  -7_2_6_5_  3___  ^_0_
    1_2_  3__5__  4_3_2_1_  -6___  ^_0
    1-7_-6_  -5__.1_  -7_2_6_5_  3___ //] >>
FCT[Liebes - Lied]
CMT[DVA-Signatur A 487]
